icons/1_Primary/NordVPN.svg

<svg width="1024" height="1024" viewBox="0 0 1024 1024" fill="none" xmlns="http://www.w3.org/2000/svg">
<g clip-path="url(#clip0_2_2961)">
<path d="M512 1024C794.77 1024 1024 794.77 1024 512C1024 229.23 794.77 0 512 0C229.23 0 0 229.23 0 512C0 794.77 229.23 1024 512 1024Z" fill="#728DBE"/>
<path d="M304.72 663.44C272.945 619.346 255.896 566.35 256 512C256 369.51 370.62 254 512 254C653.38 254 768 369.51 768 512C768.104 566.354 751.051 619.355 719.271 663.45L596.271 462.22L584.401 482.42L596.401 538.61L512 392.92L459.73 481.86L471.9 538.62L427.61 462.34L304.72 663.44Z" fill="white"/>
</g>
<defs>
<clipPath id="clip0_2_2961">
<rect width="1024" height="1024" fill="white"/>
</clipPath>
</defs>
</svg>

<svg xmlns="http://www.w3.org/2000/svg" width="1024" height="1024" fill="none">
   <g clip-path="url(#a)">
      <path fill="#728DBE" d="M512 1024c282.77 0 512-229.23 512-512S794.77 0 512 0 0 229.23 0 512s229.23 512 512 512Z"/>
      <path fill="#fff" d="M304.72 663.44A258.186 258.186 0 0 1 256 512c0-142.49 114.62-258 256-258s256 115.51 256 258a258.183 258.183 0 0 1-48.729 151.45l-123-201.23-11.87 20.2 12 56.19L512 392.92l-52.27 88.94 12.17 56.76-44.29-76.28-122.89 201.1Z"/>
   </g>
   <defs>
      <clipPath id="a">
         <path fill="#fff" d="M0 0h1024v1024H0z"/>
      </clipPath>
   </defs>
</svg>
